assets/Person merpeople/Medium/Flat/person_merpeople_flat_medium.svg

<svg width="32" height="32" viewBox="0 0 32 32" fill="none" xmlns="http://www.w3.org/2000/svg">
<path d="M19.81 16.2L19.52 16.59C19.23 16.49 18.92 16.44 18.59 16.44L15.56 16.2C14.44 16.39 13.26 17.72 13.26 19.3C13.26 20.88 14.78 21.81 15.55 22.21C15.55 22.21 17.81 23.28 17.97 24.98C18.08 26.21 17.49 28.56 13.47 28C12.81 27.91 12.23 27.58 12 26.99C11.96 26.88 12.01 26.77 12.12 26.72L12.88 26.41C13.73 26.07 14.3 25.24 14.3 24.32V23.71C14.3 23.51 14.1 23.37 13.91 23.45L12.22 24.12C11.74 24.31 11.36 24.67 11.13 25.12C11.08 25.21 10.99 25.27 10.9 25.27C10.81 25.27 10.71 25.21 10.67 25.12C10.44 24.68 10.06 24.32 9.58 24.12L7.89 23.45C7.7 23.38 7.5 23.51 7.5 23.71V24.32C7.5 25.24 8.06 26.07 8.92 26.41L9.77 26.75C9.86 26.79 9.93 26.87 9.95 26.97C10.2 28.69 11.68 30 13.46 30H13.69H16.59C19.12 30 21.47 28.6 22.61 26.34C23.06 25.45 23.35 24.38 23.35 23.1C23.35 17.97 19.81 16.2 19.81 16.2Z" fill="#00D26A"/>
<path d="M25.0804 9.52C24.9929 9.48 24.9054 9.44 24.8154 9.4C24.6554 9.33 24.4754 9.28 24.3054 9.27V8.65C24.3054 8.25 24.4554 7.88 24.7354 7.6L25.2054 7.15C25.4054 6.95 25.7354 6.95 25.9354 7.15C26.1354 7.35 26.1354 7.68 25.9354 7.88L25.4754 8.34C25.3954 8.42 25.3454 8.53 25.3454 8.65V9.64C25.2554 9.6 25.1679 9.56 25.0804 9.52Z" fill="#BB806E"/>
<path d="M7.14541 16.7401C7.21541 16.9001 7.37541 17.0001 7.54541 17.0001C7.60541 17.0001 7.66541 16.9901 7.72541 16.9701C7.94541 16.8701 8.04541 16.6101 7.94541 16.3901C7.77541 16.0101 8.08541 15.7001 8.14541 15.6501L8.20541 15.6101L7.47541 15.0701C7.19541 15.2901 6.77541 15.9101 7.14541 16.7401Z" fill="#BB806E"/>
<path d="M25.4626 8.36004C25.4626 8.10004 25.6422 7.87004 25.9015 7.83004C26.2207 7.79004 26.49 8.03004 26.5 8.34004V10.33V10.55V13.69C26.5 14.14 26.3404 14.58 26.0312 14.9C25.4826 15.47 24.6247 15.57 23.9664 15.19L20.954 13.92L20 13.5L14.4704 14.07L12.5154 16.02C12.0266 16.51 11.3783 16.78 10.69 16.78H8.6352C8.52548 16.78 8.40578 16.83 8.32598 16.91L8.23621 17C8.14644 17.09 8.01677 17.14 7.89707 17.14C7.7674 17.14 7.6477 17.1 7.55793 17.01C7.36841 16.82 7.37838 16.49 7.5679 16.3L7.89707 15.96C7.96689 15.89 7.97687 15.78 7.91702 15.69C7.86715 15.63 7.78735 15.6 7.70755 15.61C7.53798 15.64 7.28861 15.72 7.11904 15.97L6.88962 16.34C6.79985 16.49 6.64025 16.57 6.48065 16.57C6.39088 16.57 6.30111 16.55 6.22131 16.5C5.99189 16.35 5.92207 16.05 6.10161 15.85L6.33103 15.48C6.59038 15.05 7.01929 14.77 7.49808 14.68C7.57788 14.66 7.65768 14.65 7.73747 14.65L10.4506 14.35C10.5703 14.33 10.68 14.28 10.7698 14.19L13.1737 11.78C14.1213 10.83 14.6875 10.5078 16.1523 10.5078L18.8164 10.3828C19.5645 10.3828 20.3569 10.4808 21.0352 10.8008L23.9165 12.15L24.3056 10.02C24.3155 9.91004 24.2756 9.84004 24.2158 9.77004L23.8966 9.39004C23.7071 9.15004 23.6073 8.86004 23.6073 8.56004V7.62004C23.6073 7.32004 23.8567 7.08004 24.1559 7.10004C24.4253 7.12004 24.6347 7.36004 24.6347 7.64004V8.51004C24.6347 8.61004 24.6746 8.71004 24.7345 8.79004C24.8242 8.90004 24.9539 8.96004 25.0936 8.96004H25.1235C25.313 8.96004 25.4626 8.81004 25.4626 8.62004V8.36004Z" fill="#C68D7B"/>
<path d="M18.8719 10.28H16.7719C16.0419 10.28 15.3961 10.3819 14.7461 10.6719C15.4261 11.7119 16.295 13.375 17.625 13.375C18.945 13.375 20.1616 11.7995 20.8516 10.7695C20.1816 10.4495 19.6219 10.28 18.8719 10.28Z" fill="#B87A66"/>
<path d="M21.0752 3.86965C20.9038 3.57815 20.6416 3.36706 20.3391 3.26654C20.0164 3.15597 19.724 2.94488 19.5526 2.65337C19.3005 2.26135 18.877 2 18.3829 2C18.1913 2 18.0098 2.04021 17.8484 2.11057C17.6266 2.20104 17.3745 2.20104 17.1526 2.11057C16.9913 2.04021 16.8098 2 16.6182 2C16.1342 2 15.7106 2.2513 15.4686 2.63327C15.277 2.93482 14.9947 3.15597 14.6619 3.26654C14.3493 3.37711 14.0771 3.59825 13.9056 3.91991C13.6636 4.3823 13.714 4.9251 13.9863 5.32717C14.0871 5.47795 14.1476 5.64883 14.1476 5.82977V8.20201C14.1476 8.73476 14.4804 9.19715 14.9846 9.37808L16.0636 9.75V5.50811C16.1442 5.42769 16.2249 5.32717 16.2854 5.22665C16.3863 5.05577 16.4367 4.88489 16.4568 4.70396C16.5073 4.71401 16.5678 4.71401 16.6182 4.71401C16.951 4.71401 17.2636 4.59339 17.4955 4.39235C17.7375 4.59339 18.04 4.71401 18.3728 4.71401C18.4232 4.71401 18.4837 4.71401 18.5341 4.70396C18.5543 4.88489 18.6148 5.06582 18.7055 5.22665C18.766 5.33722 18.8366 5.42769 18.9274 5.50811V9.73995L20.0064 9.36803C20.5105 9.19715 20.8433 8.72471 20.8433 8.19196V5.82977C20.8433 5.64883 20.8937 5.47795 21.0047 5.32717C21.2971 4.90499 21.3374 4.34209 21.0752 3.86965Z" fill="#593B39"/>
<path d="M16 7C16 7.55228 15.5523 8 15 8C14.4477 8 14 7.55228 14 7C14 6.44771 14.4477 6 15 6C15.5523 6 16 6.44771 16 7Z" fill="#BB806E"/>
<path d="M20.988 7C20.988 7.55228 20.5403 8 19.988 8C19.4358 8 18.988 7.55228 18.988 7C18.988 6.44771 19.4358 6 19.988 6C20.5403 6 20.988 6.44771 20.988 7Z" fill="#BB806E"/>
<path d="M14.5039 5.244C14.6496 4.32073 15.4443 3.62012 16.41 3.62012H17.2171C17.3405 3.64873 17.4491 3.73283 17.5001 3.86019C17.7301 4.36019 18.2301 4.68019 18.7801 4.68019H19.5541C20.0223 4.68243 20.4 5.07153 20.3901 5.54018L20.4333 6.03018L20.2782 8.71537C20.1278 9.84955 19.1658 10.6901 18.0434 10.6901H16.9611C15.8287 10.6901 14.8767 9.83943 14.7264 8.71537L14.5159 5.39386C14.5105 5.34356 14.5065 5.2936 14.5039 5.244Z" fill="#C68D7B"/>
<path d="M15.4632 5.41165C15.3922 5.46622 15.3789 5.56796 15.4335 5.6389C15.4881 5.7098 15.5897 5.7231 15.6607 5.66862L15.6618 5.66777L15.6714 5.66104C15.6805 5.65478 15.6951 5.64522 15.7146 5.63361C15.7538 5.61034 15.8124 5.57913 15.8874 5.54969C16.0376 5.49075 16.2501 5.43997 16.5022 5.47094C16.591 5.48185 16.6719 5.41868 16.6828 5.32985C16.6937 5.24102 16.6305 5.16016 16.5417 5.14925C16.2238 5.11022 15.9564 5.17444 15.769 5.248C15.6752 5.28481 15.6008 5.32423 15.549 5.35502C15.5231 5.37044 15.5027 5.38377 15.4883 5.39364C15.481 5.39858 15.4753 5.40266 15.4711 5.40572L15.466 5.40951L15.4643 5.4108L15.4632 5.41165Z" fill="#593B39"/>
<path d="M19.6604 5.6389C19.715 5.56796 19.7016 5.46614 19.6307 5.41157L19.6297 5.4108L19.628 5.40951L19.6228 5.40572C19.6186 5.40266 19.6129 5.39858 19.6057 5.39364C19.5913 5.38377 19.5709 5.37044 19.5449 5.35502C19.4932 5.32423 19.4187 5.28481 19.3249 5.248C19.1376 5.17444 18.8701 5.11022 18.5522 5.14925C18.4634 5.16016 18.4002 5.24102 18.4111 5.32985C18.422 5.41868 18.5029 5.48185 18.5917 5.47094C18.8439 5.43997 19.0564 5.49075 19.2065 5.54969C19.2815 5.57913 19.3402 5.61034 19.3793 5.63361C19.3989 5.64522 19.4134 5.65478 19.4225 5.66104L19.4321 5.66777L19.4337 5.66896C19.5046 5.72304 19.606 5.70966 19.6604 5.6389Z" fill="#593B39"/>
<path d="M15.2564 6.80995C15.3364 6.45995 15.6564 6.19995 16.0364 6.19995C16.4364 6.19995 16.7564 6.47995 16.8364 6.84995C16.8564 6.92995 16.7864 7.00995 16.7064 7.00995H15.4164C15.3064 7.00995 15.2264 6.90995 15.2564 6.80995Z" fill="white"/>
<path d="M19.5864 6.80995C19.5064 6.45995 19.1864 6.19995 18.8064 6.19995C18.4164 6.19995 18.0864 6.47995 18.0064 6.84995C17.9864 6.92995 18.0564 7.00995 18.1364 7.00995H19.4264C19.5364 7.00995 19.6164 6.90995 19.5864 6.80995Z" fill="white"/>
<path d="M15.6365 6.86985C15.6365 6.57985 15.8665 6.34985 16.1565 6.34985C16.4465 6.34985 16.6765 6.57985 16.6765 6.86985C16.6765 6.91256 16.6692 6.94797 16.6608 6.98854C16.6594 6.99547 16.6579 7.00256 16.6565 7.00985H15.6565C15.655 7.00256 15.6536 6.99548 15.6521 6.98855C15.6438 6.94797 15.6365 6.91256 15.6365 6.86985Z" fill="#7D4533"/>
<path d="M19.2065 6.86985C19.2065 6.57985 18.9765 6.34985 18.6865 6.34985C18.4065 6.34985 18.1765 6.57985 18.1765 6.86985C18.1765 6.91985 18.1765 6.95985 18.1865 7.00985H19.1865C19.188 7.00256 19.1894 6.99548 19.1909 6.98855C19.1992 6.94797 19.2065 6.91256 19.2065 6.86985Z" fill="#7D4533"/>
<path d="M16.1564 6.56982C16.3264 6.56982 16.4564 6.70982 16.4564 6.86982C16.4564 6.91982 16.4464 6.96982 16.4064 7.00982H15.8864C15.8664 6.96982 15.8564 6.91982 15.8564 6.86982C15.8564 6.69982 15.9964 6.56982 16.1564 6.56982Z" fill="black"/>
<path d="M18.6965 6.56982C18.5265 6.56982 18.3965 6.70982 18.3965 6.86982C18.3965 6.91982 18.4065 6.96982 18.4465 7.00982H18.9665C18.9865 6.96982 18.9965 6.91982 18.9965 6.86982C18.9965 6.69982 18.8565 6.56982 18.6965 6.56982Z" fill="black"/>
<path d="M16.0765 6.66983C16.0765 6.71954 16.0362 6.75983 15.9865 6.75983C15.9368 6.75983 15.8965 6.71954 15.8965 6.66983C15.8965 6.62013 15.9368 6.57983 15.9865 6.57983C16.0362 6.57983 16.0765 6.62013 16.0765 6.66983Z" fill="white"/>
<path d="M18.6165 6.66983C18.6165 6.71954 18.5762 6.75983 18.5265 6.75983C18.4768 6.75983 18.4365 6.71954 18.4365 6.66983C18.4365 6.62013 18.4768 6.57983 18.5265 6.57983C18.5762 6.57983 18.6165 6.62013 18.6165 6.66983Z" fill="white"/>
<path d="M17.2982 6.91124L17.0127 7.85912C16.9556 8.05456 17.0984 8.25 17.2887 8.25H17.7074C17.9073 8.25 18.05 8.05456 17.9834 7.85912L17.6979 6.91124C17.6503 6.69625 17.3648 6.69625 17.2982 6.91124Z" fill="#AB6A55"/>
<path d="M17.5 8.70982C17.1819 8.70982 16.8945 8.63982 16.6379 8.50982C16.5558 8.46982 16.4635 8.55982 16.5148 8.63982C16.72 8.94982 17.0895 9.15982 17.5 9.15982C17.9105 9.15982 18.2697 8.94982 18.4852 8.63982C18.5365 8.55982 18.4442 8.46982 18.3621 8.50982C18.1055 8.63982 17.8181 8.70982 17.5 8.70982Z" fill="#990838"/>
<path d="M20.7777 15.2501C20.8177 14.8001 20.8476 14.3501 20.8676 13.9001V10.7301C20.498 10.5601 20.1085 10.4401 19.7089 10.3601V11.1701C19.7089 12.3201 18.78 13.2501 17.6313 13.2501C16.4825 13.2501 15.5536 12.3201 15.5536 11.1701V10.4001C15.1441 10.4901 14.7545 10.6301 14.3849 10.8201V14.0801C14.4049 14.4701 14.4249 14.8701 14.4648 15.2601C14.5048 15.6601 14.4948 16.2201 14.315 16.8701C14.295 16.9301 14.285 16.9801 14.275 17.0401C14.1352 17.8001 14.5947 18.5101 15.3139 18.7201C16.8022 19.1501 18.3904 19.1601 19.8787 18.7401C20.498 18.5701 20.9575 18.0401 20.9975 17.4001C21.0074 17.2401 20.9875 17.0701 20.9475 16.9201C20.7577 16.2301 20.7477 15.6501 20.7777 15.2501Z" fill="#FF6723"/>
</svg>

<svg xmlns="http://www.w3.org/2000/svg" width="32" height="32" fill="none"><path fill="#00D26A" d="m19.81 16.2-.29.39c-.29-.1-.6-.15-.93-.15l-3.03-.24c-1.12.19-2.3 1.52-2.3 3.1s1.52 2.51 2.29 2.91c0 0 2.26 1.07 2.42 2.77.11 1.23-.48 3.58-4.5 3.02-.66-.09-1.24-.42-1.47-1.01-.04-.11.01-.22.12-.27l.76-.31c.85-.34 1.42-1.17 1.42-2.09v-.61c0-.2-.2-.34-.39-.26l-1.69.67c-.48.19-.86.55-1.09 1-.05.09-.14.15-.23.15s-.19-.06-.23-.15c-.23-.44-.61-.8-1.09-1l-1.69-.67c-.19-.07-.39.06-.39.26v.61c0 .92.56 1.75 1.42 2.09l.85.34c.09.04.16.12.18.22A3.545 3.545 0 0 0 13.46 30h3.13c2.53 0 4.88-1.4 6.02-3.66.45-.89.74-1.96.74-3.24 0-5.13-3.54-6.9-3.54-6.9Z"/><path fill="#BB806E" d="m25.08 9.52-.265-.12c-.16-.07-.34-.12-.51-.13v-.62c0-.4.15-.77.43-1.05l.47-.45c.2-.2.53-.2.73 0 .2.2.2.53 0 .73l-.46.46c-.08.08-.13.19-.13.31v.99l-.265-.12ZM7.145 16.74c.07.16.23.26.4.26.06 0 .12-.01.18-.03.22-.1.32-.36.22-.58-.17-.38.14-.69.2-.74l.06-.04-.73-.54c-.28.22-.7.84-.33 1.67Z"/><path fill="#C68D7B" d="M25.463 8.36c0-.26.18-.49.438-.53.32-.04.589.2.599.51v5.35c0 .45-.16.89-.469 1.21-.548.57-1.406.67-2.065.29l-3.012-1.27L20 13.5l-5.53.57-1.955 1.95c-.488.49-1.137.76-1.825.76H8.635c-.11 0-.23.05-.309.13l-.09.09c-.09.09-.22.14-.339.14-.13 0-.25-.04-.34-.13a.514.514 0 0 1 .01-.71l.33-.34c.07-.07.08-.18.02-.27a.235.235 0 0 0-.21-.08.868.868 0 0 0-.588.36l-.23.37c-.09.15-.249.23-.408.23-.09 0-.18-.02-.26-.07-.23-.15-.299-.45-.12-.65l.23-.37c.26-.43.688-.71 1.167-.8.08-.02.16-.03.24-.03l2.713-.3c.12-.02.229-.07.319-.16l2.404-2.41c.947-.95 1.514-1.272 2.978-1.272l2.664-.125c.748 0 1.54.098 2.22.418l2.88 1.349.39-2.13c.01-.11-.03-.18-.09-.25l-.32-.38c-.189-.24-.289-.53-.289-.83v-.94c0-.3.25-.54.549-.52.27.02.479.26.479.54v.87a.458.458 0 0 0 .459.45h.03c.189 0 .339-.15.339-.34v-.26Z"/><path fill="#B87A66" d="M18.872 10.28h-2.1c-.73 0-1.376.102-2.026.392.68 1.04 1.549 2.703 2.879 2.703 1.32 0 2.537-1.575 3.227-2.605-.67-.32-1.23-.49-1.98-.49Z"/><path fill="#593B39" d="M21.075 3.87a1.35 1.35 0 0 0-.736-.603 1.45 1.45 0 0 1-.786-.614A1.386 1.386 0 0 0 18.383 2c-.192 0-.373.04-.535.11a.926.926 0 0 1-.695 0 1.357 1.357 0 0 0-1.684.523 1.521 1.521 0 0 1-.807.634 1.368 1.368 0 0 0-.676 2.06c.101.15.162.322.162.503v2.372c0 .533.332.995.837 1.176l1.079.372V5.508c.08-.08.16-.18.221-.281.101-.171.152-.342.172-.523a1.344 1.344 0 0 0 1.039-.312c.242.201.544.322.877.322.05 0 .11 0 .161-.01.02.18.08.362.172.523.06.11.13.2.221.281V9.74l1.08-.372c.503-.17.836-.643.836-1.176V5.83c0-.181.05-.352.162-.503a1.38 1.38 0 0 0 .07-1.457Z"/><path fill="#BB806E" d="M16 7a1 1 0 1 1-2 0 1 1 0 0 1 2 0ZM20.988 7a1 1 0 1 1-2 0 1 1 0 0 1 2 0Z"/><path fill="#C68D7B" d="M14.504 5.244A1.924 1.924 0 0 1 16.41 3.62h.807a.399.399 0 0 1 .283.24c.23.5.73.82 1.28.82h.774a.843.843 0 0 1 .836.86l.043.49-.155 2.685a2.265 2.265 0 0 1-2.235 1.975h-1.082a2.266 2.266 0 0 1-2.235-1.975l-.21-3.321c-.005-.05-.01-.1-.012-.15Z"/><path fill="#593B39" d="M15.463 5.412a.162.162 0 1 0 .198.257v-.001l.01-.007a1.199 1.199 0 0 1 .216-.111c.15-.06.363-.11.615-.08a.162.162 0 0 0 .04-.32 1.583 1.583 0 0 0-1.07.256l-.006.004h-.002v.002ZM19.66 5.639a.162.162 0 0 0-.03-.227V5.41l-.002-.001-.005-.004a.736.736 0 0 0-.078-.051 1.583 1.583 0 0 0-.993-.206.162.162 0 0 0 .04.322 1.258 1.258 0 0 1 .83.19l.01.007.002.001c.07.054.172.04.226-.03Z"/><path fill="#fff" d="M15.256 6.81c.08-.35.4-.61.78-.61.4 0 .72.28.8.65.02.08-.05.16-.13.16h-1.29c-.11 0-.19-.1-.16-.2ZM19.586 6.81a.796.796 0 0 0-.78-.61c-.39 0-.72.28-.8.65-.02.08.05.16.13.16h1.29c.11 0 .19-.1.16-.2Z"/><path fill="#7D4533" d="M15.636 6.87c0-.29.23-.52.52-.52a.516.516 0 0 1 .505.639l-.005.02h-1l-.004-.02c-.008-.041-.015-.076-.015-.12ZM19.206 6.87a.514.514 0 1 0-1.03 0c0 .05 0 .09.01.14h1l.005-.021c.008-.041.015-.076.015-.12Z"/><path fill="#000" d="M16.156 6.57c.17 0 .3.14.3.3 0 .05-.01.1-.05.14h-.52a.32.32 0 0 1-.03-.14c0-.17.14-.3.3-.3ZM18.697 6.57a.3.3 0 0 0-.3.3c0 .05.01.1.05.14h.52a.32.32 0 0 0 .03-.14.3.3 0 0 0-.3-.3Z"/><path fill="#fff" d="M16.076 6.67a.09.09 0 1 1-.18 0 .09.09 0 0 1 .18 0ZM18.616 6.67a.09.09 0 1 1-.18 0 .09.09 0 0 1 .18 0Z"/><path fill="#AB6A55" d="m17.298 6.911-.285.948c-.057.196.085.391.276.391h.418c.2 0 .343-.195.276-.39l-.285-.949c-.048-.215-.333-.215-.4 0Z"/><path fill="#990838" d="M17.5 8.71c-.318 0-.605-.07-.862-.2-.082-.04-.175.05-.123.13.205.31.575.52.985.52.41 0 .77-.21.985-.52.052-.08-.04-.17-.123-.13-.256.13-.544.2-.862.2Z"/><path fill="#FF6723" d="M20.778 15.25c.04-.45.07-.9.09-1.35v-3.17c-.37-.17-.76-.29-1.16-.37v.81a2.077 2.077 0 1 1-4.154 0v-.77c-.41.09-.8.23-1.17.42v3.26c.02.39.04.79.08 1.18.04.4.03.96-.149 1.61-.02.06-.03.11-.04.17-.14.76.32 1.47 1.039 1.68 1.488.43 3.076.44 4.565.02.619-.17 1.078-.7 1.118-1.34.01-.16-.01-.33-.05-.48-.19-.69-.2-1.27-.17-1.67Z"/></svg>
